img/vector/icons-google-play.svg

<svg width="29" height="29" viewBox="0 0 29 29" fill="none" xmlns="http://www.w3.org/2000/svg">
<path d="M6.54671 2.81311L15.6328 12.2768C15.8688 12.5223 16.2653 12.5223 16.5013 12.2768L18.3421 10.3605C18.6159 10.0773 18.5545 9.61471 18.21 9.42118C13.4569 6.73075 7.56624 3.3984 6.54671 2.81311ZM3.79492 3.44088C3.69108 3.6816 3.625 3.9412 3.625 4.23385V24.8841C3.625 25.1201 3.67692 25.3372 3.75716 25.5449L13.9855 14.8917C14.2121 14.6604 14.2121 14.2923 13.9855 14.0563L3.79492 3.44088ZM21.075 11.1865C20.9476 11.2054 20.8249 11.2667 20.7305 11.3658L18.1439 14.0563C17.9173 14.2876 17.9173 14.6557 18.1439 14.8917L20.7069 17.5586C20.8957 17.7568 21.2025 17.7993 21.4432 17.6624C23.2321 16.6476 24.4404 15.9679 24.4404 15.9679C25.0446 15.5997 25.3844 15.038 25.375 14.4244C25.3656 13.825 25.0163 13.268 24.4357 12.9423C24.3649 12.8999 23.1849 12.2343 21.4621 11.262C21.3441 11.1912 21.2072 11.1676 21.075 11.1865ZM16.0671 16.4871C15.9066 16.4871 15.7508 16.5485 15.6281 16.6759L6.61279 26.0594C8.16569 25.1767 13.6882 22.052 18.1864 19.5079C18.5309 19.3097 18.5923 18.8471 18.3185 18.5639L16.5013 16.6759C16.3833 16.5485 16.2275 16.4871 16.0671 16.4871Z" fill="white"/>
</svg>

<svg width="29" height="29" fill="none" xmlns="http://www.w3.org/2000/svg"><path d="m6.547 2.813 9.086 9.464a.604.604 0 0 0 .868 0l1.841-1.916a.597.597 0 0 0-.132-.94C13.457 6.731 7.566 3.398 6.547 2.813Zm-2.752.628c-.104.24-.17.5-.17.793v20.65c0 .236.052.453.132.66l10.228-10.652a.598.598 0 0 0 0-.836L3.796 3.441Zm17.28 7.746a.598.598 0 0 0-.345.179l-2.586 2.69a.598.598 0 0 0 0 .836l2.563 2.667c.189.198.495.24.736.103 1.79-1.014 2.997-1.694 2.997-1.694.605-.368.944-.93.935-1.544-.01-.599-.359-1.156-.94-1.482-.07-.042-1.25-.708-2.973-1.68a.588.588 0 0 0-.387-.075Zm-5.008 5.3a.601.601 0 0 0-.439.189l-9.015 9.383a11154.4 11154.4 0 0 1 11.573-6.551.602.602 0 0 0 .133-.944L16.5 16.676a.584.584 0 0 0-.434-.189Z" fill="#fff"/></svg>
